src/assets/images/logo.svg

<svg fill="none" height="25" viewBox="0 0 43 25" width="43" xmlns="http://www.w3.org/2000/svg"><g clip-rule="evenodd" fill-rule="evenodd"><path d="m42.6539 12.4915-11.8161-11.774757v8.623257l-11.7323 8.6339 11.7323.0081v6.2842z" fill="#4e529a"/><path d="m.998047 12.4872 11.816053 11.7747v-8.5539l11.7324-8.7033-11.7324-.00806v-6.284177z" fill="#8c8dfc"/></g></svg>

<svg width="43" height="25" viewBox="0 0 43 25" fill="none" xmlns="http://www.w3.org/2000/svg">
<path fill-rule="evenodd" clip-rule="evenodd" d="M42.6539 12.4915L30.8378 0.716743V9.34L19.1055 17.9739L30.8378 17.982V24.2662L42.6539 12.4915Z" fill="#4E529A"/>
<path fill-rule="evenodd" clip-rule="evenodd" d="M0.998047 12.4872L12.8141 24.2619V15.708L24.5465 7.0047L12.8141 6.99664V0.712463L0.998047 12.4872Z" fill="#8C8DFC"/>
</svg>
